X: 39538
T: Taylor's
R: barndance
M: 4/4
K: Dmajor
|:de dB A2FA|Be ef ed Bc|de dB AF BF|1 ED EF D2FA:|2 ED EF D3B||
|:Ad fd ed fd|Ad fd eB B2|1 Ad fd ed fd|AB AF D4:|2 a2fd eBB2|AB AFD4||

